X: 5
T:Frosty Morning
S:Karl Moore - Peach Bottom String Band
%SourceLine rtitle = "\fI\fP";
C:
M:4/4
L:1/4
K:Em
G | \
"Am"E/G/A/B/ A3/G/ | \
A/c/de2 | \
"G"GB/A/GE | \
G/A/B/c/d2 | \
"Am"E/G/A/B/ A3/G/ | \
"Am"A/c/d e3/c/- | \
"C"c/B/A/c/ "G"B/A/G | \
"Em"E/G/A "Am"A2 :|
|:\
"Am"ea aa/g/ | \
a/b/a/g/ e3/f/ | \
"G"g/f/g/f/ e/f/e/d/ | \
"G"A/c/d "Em"e2 | \
"Am"A3/A/ cc | \
"Am"d/c/d "Em"e-e/c/- | \
"Am"c/B/A/c/ "G"B/A/G | \
"Em"E/G/A "Am"A2 :|
